X:72
T:Gan Ainm
R:Hornpipe
D:Tape of concert ('You and Yours'), Newtownards, 1983
Z:Bernie Stocks
M:4/4
K:D
dcde fdAF | GFGA BGE2 | efge ceAc | defd A2Bc | dcde fdAF | GFGA BGE2 |
efge cABc | dfec d4 :: fefg afdf | gfga bgeg | (3faf df bagf |
(3efe (3dcB A2ag | fefg afdf | gfga bgeg | (3faf df (3efe ce | dfaf d4 ||
<end>
<start>
